easy/balance.svg

<svg xmlns:bx="https://boxy-svg.com" viewBox="525.722 -585.502 1277.376 1170.941" xmlns="http://www.w3.org/2000/svg"><defs><clipPath id="balance_svg__clip-Balance"><path d="M0 0h1166v1094H0z"/></clipPath><style bx:fonts="Roboto" bx:pinned="true">@import url(https://fonts.googleapis.com/css2?family=Roboto%3Aital%2Cwght%400%2C100%3B0%2C300%3B0%2C400%3B0%2C500%3B0%2C700%3B0%2C900%3B1%2C100%3B1%2C300%3B1%2C400%3B1%2C500%3B1%2C700%3B1%2C900&amp;display=swap);</style></defs><g id="balance_svg__Balance" clip-path="url(#balance_svg__clip-Balance)" transform="translate(574.321 -533.479)"><path id="balance_svg__Path_485" fill="#fff" d="M612 0c299.338 0 542 242.662 542 542s-92.156 445.531-612 542C242.662 1084 0 542 0 542S312.662 0 612 0Z" data-name="Path 485" transform="translate(4 3)"/><path id="balance_svg__Path_489" fill="#840729" d="M1148.528 548.719c-42.03-.864-82.866-.121-124.022 9.59-41.459 9.783-81.3 25.952-118.617 46.4-15.6 8.551-32.537 20.508-33.86 38.248-.825 11.074 4.864 21.509 10.865 30.851 8.7 13.558 18.78 26.731 32.413 35.318 24.175 15.227 54.916 13.561 83.4 11.286 71.584-5.721 143.271-12.016 213.786-25.6 25.482-4.909 50.974-10.829 74.661-21.437 12.873-5.767 26.385-14.529 29.163-28.361 3.99-19.849-14.5-37.188-29.936-46.137-30.894-17.907-37.834-24.893-72.2-32.941-14.6-3.419-41.286-14.05-79.1-17.483" data-name="Path 489" transform="translate(-229.722 -283.794)"/><path id="balance_svg__Path_486" fill="#840729" d="M816.108 597.895c39.669-3.159 78.286-4.646 117.629 2.8 39.63 7.5 78.035 21.473 114.255 39.852 15.142 7.687 31.705 18.7 33.792 36.342 1.3 11.008-3.586 21.74-8.815 31.4-7.589 14.008-16.488 27.712-28.964 37.029-22.125 16.524-51.249 16.537-78.266 15.82-67.9-1.8-135.934-4.172-203.195-13.884-24.309-3.511-48.673-8.029-71.551-17.326-12.433-5.053-25.61-13.065-28.886-26.721-4.701-19.6 11.947-37.923 26.115-47.701 28.348-19.566 34.574-26.92 66.661-36.833 13.633-4.212 38.349-16.28 73.914-21.773" data-name="Path 486" transform="rotate(4.637 871.64 678.335)"/><path id="balance_svg__Path_490" fill="#557591" d="M229.46 519.243c40.726-6.914 80.532-12.2 121.981-9.476a479.109 479.109 0 0 1 89.187 14.689c21.786 5.672 56.549 11.038 71.852 28.4a66.822 66.822 0 0 1 12.748 22.223 47.315 47.315 0 0 1 2.125 22.343c-1.262 8.2-6.624 15.344-12.932 21-31.188 27.973-73.319 30.366-113.806 33.414-70.433 5.3-141.058 10.109-211.618 8.182-25.5-.7-51.164-2.3-75.762-8.384-13.372-3.309-27.807-9.222-32.566-21.258-6.826-17.277 8.567-35.575 22.246-45.88 27.367-20.618 33.074-27.917 65.279-40.175 13.685-5.209 38.046-18.666 74.3-27.279" data-name="Path 490" transform="rotate(-3.622 303.423 584.746)"/><path id="balance_svg__Path_491" fill="#557591" d="M284.029 215.023c30.1-1.695 59.375-2.106 88.995 4.489 29.838 6.64 58.6 18.314 85.611 33.394 11.292 6.308 23.589 15.243 24.772 29.078.737 8.635-3.2 16.932-7.377 24.384-6.06 10.807-13.1 21.349-22.757 28.394-17.124 12.492-39.174 11.934-59.614 10.845-51.369-2.735-102.823-5.917-153.53-14.823-18.323-3.221-36.67-7.23-53.781-14.946-9.3-4.2-19.1-10.719-21.274-21.463a36.06 36.06 0 0 1 14.982-37.01c21.9-14.744 23.853-20.485 48.367-27.611 10.415-3.029 38.186-11.661 65.237-15.263" data-name="Path 491"/><path id="balance_svg__Path_492" fill="#557591" d="M900.641 576.481c-26.545-2.859-52.354-4.221-78.442 2.406-26.284 6.679-51.6 19.139-75.365 35.549-9.936 6.862-20.746 16.7-21.743 32.475-.619 9.848-.039 19.735 3.667 28.377 5.375 12.537 8.7 25.088 17.242 33.433 15.135 14.8 40.409 14.269 58.423 13.649 45.28-1.552 90.631-3.615 135.3-12.244 16.146-3.116 32.305-7.136 47.366-15.436 8.186-4.509 16.8-11.664 18.682-23.875 2.7-17.532-3.658-34-13.33-42.756-19.357-17.525-21.095-24.143-42.73-33.039-9.193-3.778-33.707-14.494-57.566-19.439" data-name="Path 492" transform="translate(-562.086 -225.795)"/><path id="balance_svg__Path_487" fill="#840729" d="M1087.934 606.814c-26.271-4.756-51.914-7.967-78.413-3.227-26.7 4.776-52.843 15.39-77.719 30.053-10.4 6.132-21.89 15.168-24.015 30.832-1.327 9.78-1.454 19.683 1.62 28.566 4.466 12.893 6.885 25.649 14.8 34.584 14.037 15.846 39.285 17.131 57.3 17.805 45.273 1.7 90.657 2.892 135.832-2.51 16.329-1.953 32.736-4.8 48.354-12 8.486-3.912 17.594-10.428 20.348-22.477 3.948-17.29-1.213-34.173-10.233-43.6-18.05-18.868-19.308-25.593-40.253-36.015-8.9-4.43-32.579-16.876-56.021-23.52" data-name="Path 487" transform="translate(-150.742 -164.458)"/><text id="balance_svg__ENERGI" x="56.23" y="19.994" style="fill:#fff;font-family:Roboto;font-size:35px;font-weight:500;letter-spacing:10px;white-space:pre" transform="rotate(3.326 -4534.386 3042.113)">ENERGI</text><text id="balance_svg__NETVÆRK" x="38.079" y="19.995" style="fill:#fff;font-family:Roboto;font-size:30px;font-weight:500;letter-spacing:10px;line-height:48.0124px;white-space:pre" transform="rotate(-3.383 7372.684 -2474.844)">NETVÆRK</text><text id="balance_svg__STRESS" x="57.279" y="20" style="fill:#fff;font-family:Roboto;font-size:30px;font-weight:500;letter-spacing:10px;white-space:pre" transform="rotate(.751 -38460.829 58187.701)">STRESS</text><text id="balance_svg__OPMÆRKSOMHED" x="75.867" y="20" style="fill:#fff;font-family:Roboto;font-size:35px;font-weight:500;letter-spacing:10px;white-space:pre" transform="rotate(-7.461 4729.67 -392.281)">Selvomsorg</text><text id="balance_svg__BELASTNINGER" x="92.326" y="20" style="fill:#fff;font-family:Roboto;font-size:30px;font-weight:500;letter-spacing:10px;white-space:pre" transform="rotate(-5.386 4202.338 -6179.584)">BELASTNINGER</text><path id="balance_svg__Path_488" fill="#27303e" d="M1354.61 792.108c-6.732 1.721-30.337-9.9-36.6-10.953-50.1-8.45-67.326-11.95-117.31-21.068-30.985-5.649-92.877-13.946-127.086-20.163 11.123 12.456 25.764 37 33.787 48.361 16.645 23.563 48.154 32.135 77.324 27.18 9.92-1.685 21.59-1.467 26.112 10.109 5.552 14.207 6.793 29.583-1.816 42.975-2.859 4.447-11.009 7.719-16.759 7.752-86.126.482-172.255.349-258.381.277a24.543 24.543 0 0 1-8.955-1.4c-11.6-4.672-16.775-22.086-12.511-42.235 2.53-11.954 9.975-18.135 22.454-17.717a24.883 24.883 0 0 1 3.948.029c31.725 6.363 59.477 7.1 77.515-18.356 9.287-13.1 34-42.926 46.723-56.969-20.289-3.811-58.423-14.766-76.623-18.1-71.085-13-143.049-19.382-214.1-32.564-4.886-.906-6.394 2.008-11.075 0v-7.916c5.614-1.917 11.647-6.272 16.775-5.382 76.242 13.216 152.37 27.09 228.514 40.875q163.921 29.681 327.8 59.62c6.992 1.284 13.519 5.1 20.263 7.732Zm-162.345 37.177c-27.443-21.373-235.221-1.352-258.381-3.711s-4.847 42.975-4.847 42.975 258.8 11.3 267.377-4.423 0-3.672 0-3.672 23.294-9.797-4.148-31.17Zm-75.655-14.762-53.553-58.4-53.257 58.4Z" data-name="Path 488" transform="translate(-479.868 4.111)"/><text id="balance_svg__BEKYMRINGER" x="98.773" y="20" style="fill:#fff;font-family:Roboto;font-size:30px;font-weight:500;letter-spacing:10px;line-height:47.9991px;white-space:pre" transform="rotate(6.056 -5855.763 6038.957)">BEKYMRINGER</text></g></svg>

<?xml version="1.0" encoding="utf-8"?>
<svg viewBox="525.722 -585.502 1277.376 1170.941" xmlns="http://www.w3.org/2000/svg" xmlns:bx="https://boxy-svg.com">
  <defs>
    <clipPath id="clip-Balance">
      <rect width="1166" height="1094"/>
    </clipPath>
    <style bx:fonts="Roboto" bx:pinned="true">@import url(https://fonts.googleapis.com/css2?family=Roboto%3Aital%2Cwght%400%2C100%3B0%2C300%3B0%2C400%3B0%2C500%3B0%2C700%3B0%2C900%3B1%2C100%3B1%2C300%3B1%2C400%3B1%2C500%3B1%2C700%3B1%2C900&amp;display=swap);</style>
  </defs>
  <g id="Balance" clip-path="url(#clip-Balance)" transform="matrix(1, 0, 0, 1, 574.321289, -533.478943)">
    <path id="Path_485" data-name="Path 485" d="M612,0h0c299.338,0,542,242.662,542,542s-92.156,445.531-612,542h0C242.662,1084,0,542,0,542S312.662,0,612,0Z" transform="translate(4 3)" fill="#fff"/>
    <path id="Path_489" data-name="Path 489" d="M1148.528,548.719c-42.03-.864-82.866-.121-124.022,9.59-41.459,9.783-81.3,25.952-118.617,46.4-15.6,8.551-32.537,20.508-33.86,38.248-.825,11.074,4.864,21.509,10.865,30.851,8.7,13.558,18.78,26.731,32.413,35.318,24.175,15.227,54.916,13.561,83.4,11.286,71.584-5.721,143.271-12.016,213.786-25.6,25.482-4.909,50.974-10.829,74.661-21.437,12.873-5.767,26.385-14.529,29.163-28.361,3.99-19.849-14.5-37.188-29.936-46.137-30.894-17.907-37.834-24.893-72.2-32.941-14.6-3.419-41.286-14.05-79.1-17.483" transform="translate(-229.722 -283.794)" fill="#840729"/>
    <path id="Path_486" data-name="Path 486" d="M 816.108 597.895 C 855.777 594.736 894.394 593.249 933.737 600.695 C 973.367 608.195 1011.772 622.168 1047.992 640.547 C 1063.134 648.234 1079.697 659.247 1081.784 676.889 C 1083.084 687.897 1078.198 698.629 1072.969 708.289 C 1065.38 722.297 1056.481 736.001 1044.005 745.318 C 1021.88 761.842 992.756 761.855 965.739 761.138 C 897.839 759.338 829.805 756.966 762.544 747.254 C 738.235 743.743 713.871 739.225 690.993 729.928 C 678.56 724.875 665.383 716.863 662.107 703.207 C 657.406 683.607 674.054 665.284 688.222 655.506 C 716.57 635.94 722.796 628.586 754.883 618.673 C 768.516 614.461 793.232 602.393 828.797 596.9" fill="#840729" transform="matrix(0.996727, 0.080846, -0.080846, 0.996727, 57.693576, -68.248458)"/>
    <path id="Path_490" data-name="Path 490" d="M 229.46 519.243 C 270.186 512.329 309.992 507.043 351.441 509.767 C 381.567 511.842 411.429 516.76 440.628 524.456 C 462.414 530.128 497.177 535.494 512.48 552.856 C 518.123 559.372 522.452 566.919 525.228 575.079 C 527.718 582.249 528.447 589.912 527.353 597.422 C 526.091 605.622 520.729 612.766 514.421 618.422 C 483.233 646.395 441.102 648.788 400.615 651.836 C 330.182 657.136 259.557 661.945 188.997 660.018 C 163.497 659.318 137.833 657.718 113.235 651.634 C 99.863 648.325 85.428 642.412 80.669 630.376 C 73.843 613.099 89.236 594.801 102.915 584.496 C 130.282 563.878 135.989 556.579 168.194 544.321 C 181.879 539.112 206.24 525.655 242.494 517.042" fill="#557591" transform="matrix(0.998002, -0.063183, 0.063183, 0.998002, -36.339794, 20.339524)"/>
    <path id="Path_491" data-name="Path 491" d="M 284.029 215.023 C 314.129 213.328 343.404 212.917 373.024 219.512 C 402.862 226.152 431.624 237.826 458.635 252.906 C 469.927 259.214 482.224 268.149 483.407 281.984 C 484.144 290.619 480.207 298.916 476.03 306.368 C 469.97 317.175 462.93 327.717 453.273 334.762 C 436.149 347.254 414.099 346.696 393.659 345.607 C 342.29 342.872 290.836 339.69 240.129 330.784 C 221.806 327.563 203.459 323.554 186.348 315.838 C 177.048 311.638 167.248 305.119 165.074 294.375 C 162.159 280.147 168.065 265.559 180.056 257.365 C 201.956 242.621 203.909 236.88 228.423 229.754 C 238.838 226.725 266.609 218.093 293.66 214.491" fill="#557591"/>
    <path id="Path_492" data-name="Path 492" d="M900.641,576.481c-26.545-2.859-52.354-4.221-78.442,2.406-26.284,6.679-51.6,19.139-75.365,35.549-9.936,6.862-20.746,16.7-21.743,32.475-.619,9.848-.039,19.735,3.667,28.377,5.375,12.537,8.7,25.088,17.242,33.433,15.135,14.8,40.409,14.269,58.423,13.649,45.28-1.552,90.631-3.615,135.3-12.244,16.146-3.116,32.305-7.136,47.366-15.436,8.186-4.509,16.8-11.664,18.682-23.875,2.7-17.532-3.658-34-13.33-42.756-19.357-17.525-21.095-24.143-42.73-33.039-9.193-3.778-33.707-14.494-57.566-19.439" transform="translate(-562.086 -225.795)" fill="#557591"/>
    <path id="Path_487" data-name="Path 487" d="M1087.934,606.814c-26.271-4.756-51.914-7.967-78.413-3.227-26.7,4.776-52.843,15.39-77.719,30.053-10.4,6.132-21.89,15.168-24.015,30.832-1.327,9.78-1.454,19.683,1.62,28.566,4.466,12.893,6.885,25.649,14.8,34.584,14.037,15.846,39.285,17.131,57.3,17.805,45.273,1.7,90.657,2.892,135.832-2.51,16.329-1.953,32.736-4.8,48.354-12,8.486-3.912,17.594-10.428,20.348-22.477,3.948-17.29-1.213-34.173-10.233-43.6-18.05-18.868-19.308-25.593-40.253-36.015-8.9-4.43-32.579-16.876-56.021-23.52" transform="translate(-150.742 -164.458)" fill="#840729"/>
    <text id="ENERGI" transform="matrix(0.998316, 0.058018, -0.058018, 0.998316, 168.86142, 268.198944)" style="fill: rgb(255, 255, 255); font-family: Roboto; font-size: 35px; font-weight: 500; letter-spacing: 10px; white-space: pre;" x="56.23" y="19.994">ENERGI</text>
    <text id="NETVÆRK" transform="matrix(0.998257, -0.059015, 0.059015, 0.998257, 158.903488, 430.785278)" style="fill: rgb(255, 255, 255); font-family: Roboto; font-size: 30px; font-weight: 500; letter-spacing: 10px; line-height: 48.0124px; white-space: pre;" x="38.079" y="19.995">NETVÆRK</text>
    <text id="STRESS" transform="matrix(0.999914, 0.013125, -0.013125, 0.999914, 760.405945, 509.802521)" style="fill: rgb(255, 255, 255); font-family: Roboto; font-size: 30px; font-weight: 500; letter-spacing: 10px; white-space: pre;" x="57.279" y="20">STRESS</text>
    <text id="OPMÆRKSOMHED" transform="matrix(0.991534, -0.12985, 0.12985, 0.991534, 90.979088, 610.826721)" style="fill: rgb(255, 255, 255); font-family: Roboto; font-size: 35px; font-weight: 500; letter-spacing: 10px; white-space: pre;" x="75.867" y="20">Selvomsorg</text>
    <text id="BELASTNINGER" transform="matrix(0.995585, -0.093864, 0.093864, 0.995585, 598.59375, 367.165436)" style="fill: rgb(255, 255, 255); font-family: Roboto; font-size: 30px; font-weight: 500; letter-spacing: 10px; white-space: pre;" x="92.326" y="20">BELASTNINGER</text>
    <path id="Path_488" data-name="Path 488" d="M1354.61,792.108c-6.732,1.721-30.337-9.9-36.6-10.953-50.1-8.45-67.326-11.95-117.31-21.068-30.985-5.649-92.877-13.946-127.086-20.163,11.123,12.456,25.764,37,33.787,48.361,16.645,23.563,48.154,32.135,77.324,27.18,9.92-1.685,21.59-1.467,26.112,10.109,5.552,14.207,6.793,29.583-1.816,42.975-2.859,4.447-11.009,7.719-16.759,7.752-86.126.482-172.255.349-258.381.277a24.543,24.543,0,0,1-8.955-1.4c-11.6-4.672-16.775-22.086-12.511-42.235,2.53-11.954,9.975-18.135,22.454-17.717a24.883,24.883,0,0,1,3.948.029c31.725,6.363,59.477,7.1,77.515-18.356,9.287-13.1,34-42.926,46.723-56.969-20.289-3.811-58.423-14.766-76.623-18.1-71.085-13-143.049-19.382-214.1-32.564-4.886-.906-6.394,2.008-11.075,0V681.35c5.614-1.917,11.647-6.272,16.775-5.382,76.242,13.216,152.37,27.09,228.514,40.875q163.921,29.681,327.8,59.62c6.992,1.284,13.519,5.1,20.263,7.732Zm-162.345,37.177c-27.443-21.373-235.221-1.352-258.381-3.711s-4.847,42.975-4.847,42.975,258.8,11.3,267.377-4.423,0-3.672,0-3.672S1219.708,850.657,1192.266,829.284Zm-75.655-14.762-53.553-58.4-53.257,58.4Z" transform="translate(-479.868 4.111)" fill="#27303e"/>
    <text id="BEKYMRINGER" transform="matrix(0.994419, 0.105503, -0.105503, 0.994419, 604.447083, 651.504028)" style="fill: rgb(255, 255, 255); font-family: Roboto; font-size: 30px; font-weight: 500; letter-spacing: 10px; line-height: 47.9991px; white-space: pre;" x="98.773" y="20">BEKYMRINGER</text>
  </g>
</svg>
